X:3065
T: Bendels 70-årspolska
C: Wille Toors
S: Utlärd av Kalle Almlöf
Z: Karin Arén
M: 3/4
L: 1/8
K: D
|:vA,2 (3(FED) A>F | vd2 (cB/A/) v(B2 | A2) (^c>e) a>^c | B2 ^GB A2
vA,2 (3(FED) A>F | vd2 (cB/A/) v(B2 | A2) (^c>e) a>^c |1 d2 d4 :|2 d2 d3 c|: 
vB2 (3GBd g>B | vA2 FA/F/ D>F | vE2 CE/C/ vD>F |  (3E2(C2E2) D>d | 
vB2 (3GBd g>B | vA2 FA/F/ D>F | vE2 C(C E)>F | D2 D4 :|
(:musicend:)



(:music:)
